X:2205
T:Broken String, The
S:Andy Hornby
R:Mazurka
O:England
N:15.1.94
M:3/4
C:Andy Hornby
A:Lancaster
K:G
EG|\
A2 ABGB|A2 AGEG|A2 ABde|gf ed eg|\
B2BABd|A2 AGBG|AB AG EG|1 D4 :|2 G4 ||
|:Bd|\
e2 ed B/c/d|e2de g2|e2 ed e/f/g|ab ag eg|\
a2 abag|e2 de g2|G2 GABG|A4 Bd|
e2ed c/d/e|g2 G2 BG|A2 ABAG|E4 GA|\
BG gf ed|B2BG EG| A2ABAG| G4 ||
W:Copyright Andy Hornby


